X: 1
T: String Quartet in B\b Major opus 64 no 3 mvt 4
C: Franz Joseph Haydn
%%abc-version 2.0
%%abcx-abcm2ps-target-version 5.9.1 (29 Sep 2008)
%%abc-creator hum2abc beta
%%abcx-conversion-date 2021/02/14 14:38:28
%%abc-copyright Copyright (c) 1994, 2000 Center for Computer Assisted Research in the Humanities
%%abc-edited-by Frances Bennion
%%abcx-initial-encoding-date 1997/04/15
%%gracespace 0 6 6
%%humdrum-veritas 116615153
%%humdrum-veritas-data 79252266
%%linebreak <none>
%%barnumbers 0
L: 1/8
M: 2/4
N: Derived from op64n3-04.krn
Q: "Finale: Allegro con spirito"
%%staves [1 2 3 4]
V: 1
V: 2
V: 3 clef=alto
V: 4 clef=bass
K: Bb
[V:1]z3 e/A/ [I:setbarnb1]|
[V:2]z3 E |
[V:3]z3 C |
[V:4]z3 B,, |
[V:1]Bf/A/ Bg/A/ |
[V:2]FE FE |
[V:3]DC DC |
[V:4]B,,B,, B,,B,, |
[V:1]Ba/f/ bf- |
[V:2]Fz2 d- |
[V:3]Dz3 |
[V:4]B,,z3 |
[V:1]f=e _ed |
[V:2]d^c =cB |
[V:3]A,3 B, |
[V:4]A,,3 B,, |
[V:1]c/B/c/d/ ce/A/ |
[V:2]Az2 E |
[V:3]F2 zC |
[V:4]F,2 zB,, |
[V:1]Bf/A/ Bg/A/ |
[V:2]FE FE |
[V:3]DC DC |
[V:4]B,,B,, B,,B,, |
[V:1]Ba/f/ bd'- |
[V:2]Fz2 d- |
[V:3]Dz3 |
[V:4]B,,z3 |
[V:1]d'b2 ^f- |
[V:2]dB2 ^F- |
[V:3]B,4- |
[V:4]D,,2 D,2 |
[V:1]fg2 e/c/ |
[V:2]FG2 E/C/ |
[V:3]B,3 G, |
[V:4]E,2 E,2 |
[V:1]BB c/B/c/d/ |
[V:2]DD E/D/E/F/ |
[V:3]F,2 A,2 |
[V:4]F,2 F,,2 |
[V:1]B2 zC/A,/ |
[V:2]Dz3 |
[V:3]B,2 E,2 |
[V:4]B,,4- |
[V:1]B,D FF |
[V:2]z2 D2- |
[V:3]D,2 _A,2 |
[V:4]B,,4- |
[V:1]F>G Ee/c/ |
[V:2]DE EE |
[V:3]G,4 |
[V:4]B,,4- |
[V:1]B/A/c/A/ G/F/c/E/ |
[V:2][E4C4] |
[V:3]A,4 |
[V:4]B,,4- |
[V:1]D/F/B/d/ fC/A,/ |
[V:2][B,2D2] z2 |
[V:3]B,2 D,E, |
[V:4]B,,4- |
[V:1]B,D FF |
[V:2]z2 _C2 |
[V:3]D,2 [_A,2D2] |
[V:4]B,,4- |
[V:1]F>G Eg/f/ |
[V:2]B,2 z2 |
[V:3][G,D]E [G,E][EG,] |
[V:4]B,,4- |
[V:1]e/d/c/B/ A/G/F/E/ |
[V:2]A4 |
[V:3][E4C4] |
[V:4]B,,4- |
[V:1]D/F/B/d/ fe/A/ |
[V:2]B2 zC/E/ |
[V:3][D2B,2] zA,/C/ |
[V:4]B,,2 zF, |
[V:1]Bd fe/A/ |
[V:2]D2 zC/E/ |
[V:3]B,2 zA,/C/ |
[V:4]B,2 zF, |
[V:1]Bd g=e/c/ |
[V:2]D2 zG/=E/ |
[V:3]B,2 zC/G/ |
[V:4]B,,2 zB, |
[V:1]fa c'g/=e/ |
[V:2]F2 zG/B/ |
[V:3]F2 z=E/G/ |
[V:4]A,2 zB, |
[V:1]fa c'c'/a/ |
[V:2]c2 z2 |
[V:3]F2 z2 |
[V:4]A,2 zF, |
[V:1]bb gg |
[V:2]G4 |
[V:3]C4- |
[V:4]=E,E, E,E, |
[V:1]=ee BB |
[V:2][G4B4] |
[V:3]C4- |
[V:4]=E,E, E,E, |
[V:1]AA cc |
[V:2][A4F4] |
[V:3]C4- |
[V:4]F,F, F,F, |
[V:1]f/=e/a/g/ f/e/d/c/ |
[V:2]A4 |
[V:3]C4 |
[V:4]F,F, F,F, |
[V:1]c/B/A/G/ F/=E/B/G/ |
[V:2]Bz Bz |
[V:3]Cz Cz |
[V:4]=E,z E,z |
[V:1]F/=E/G/E/ C/B,/G/B,/ |
[V:2]Gz Gz |
[V:3]Cz Cz |
[V:4]=E,z E,z |
[V:1]A,/c/c/c/ =B/c/E/c/ |
[V:2]A2 zE |
[V:3]C2 zB, |
[V:4]F,2 zG, |
[V:1]D/d/d/d/ ^c/d/D/=c/ |
[V:2]D2 zc |
[V:3]A,2 zD |
[V:4]^F,2 zF, |
[V:1]D/B/B/B/ c/B/d/B/ |
[V:2]B2 zG |
[V:3]D2 zG |
[V:4]G,2 zF, |
[V:1]d/c/b/g/ b/g/=e/B/ |
[V:2]B3 G |
[V:3]G3 c |
[V:4]=E,4 |
[V:1]A/f/=e/f/ g/f/a/g/ |
[V:2]A4 |
[V:3]c4 |
[V:4]F,F, F,F, |
[V:1]f/=e/d/c/ =B/A/G/F/ |
[V:2]=B4 |
[V:3]F3 G |
[V:4]D,D, D,D, |
[V:1]=Eg ga |
[V:2]c=e ef |
[V:3]G2 z2 |
[V:4]C,2 z2 |
[V:1]bz3 |
[V:2]gz3 |
[V:3]zG GA |
[V:4]z=E EF |
[V:1]z=e ef |
[V:2]zc cd |
[V:3]Bz3 |
[V:4]Gz3 |
[V:1]gg ga |
[V:2]=ec cc |
[V:3]z=E EF |
[V:4]zB, B,A, |
[V:1]b2 zb |
[V:2]c2 z_d |
[V:3]=E2 zF |
[V:4]G,2 zG, |
[V:1]bb bb |
[V:2]c_d cd |
[V:3]=EF EF |
[V:4]G,G, G,G, |
[V:1]b2 zb |
[V:2]c2 z_d |
[V:3]=E2 zF |
[V:4]G,2 zG, |
[V:1]bb bb |
[V:2]c_d cd |
[V:3]=EF EF |
[V:4]G,G, G,G, |
[V:1]b2 zb |
[V:2]c2 z_d |
[V:3]=E2 zF |
[V:4]G,2 zG, |
[V:1]b2 zb |
[V:2]c2 z_d |
[V:3]=E2 zF |
[V:4]G,2 zG, |
[V:1]bz bz |
[V:2]cz cz |
[V:3]=Ez Ez |
[V:4]G,z G,z |
[V:1]bz bz |
[V:2]cz cz |
[V:3]=Ez Ez |
[V:4]G,z G,z |
[V:1]b4 |
[V:2]c4- |
[V:3]E4 |
[V:4]_A,4- |
[V:1]_a4- |
[V:2]c4 |
[V:3]F4- |
[V:4]A,4 |
[V:1]a4 |
[V:2]d4 |
[V:3]F4 |
[V:4]B,4- |
[V:1]g4 |
[V:2]e4- |
[V:3]E2 G2 |
[V:4]B,4- |
[V:1]f4 |
[V:2]e4 |
[V:3]B4 |
[V:4]B,4 |
[V:1]f4 |
[V:2]d4 |
[V:3]G4 |
[V:4]=B,4 |
[V:1]=eb/g/ b/g/a/f/ |
[V:2]=eG G/B/A/c/ |
[V:3]G=E E/G/F/A/ |
[V:4]CC CC |
[V:1]g/=e/f/d/ e/c/d/=B/ |
[V:2]B2 z2 |
[V:3]G2 z2 |
[V:4]C2 z2 |
[V:1]cb/g/ b/g/a/f/ |
[V:2]GG G/B/A/c/ |
[V:3]=EE E/G/F/A/ |
[V:4]CC CC |
[V:1]g/=e/f/d/ e/c/d/=B/ |
[V:2]B2 z2 |
[V:3]G2 z2 |
[V:4]C2 z2 |
[V:1]cb/g/ b/g/a/f/ |
[V:2]GG G/B/A/c/ |
[V:3]=EE E/G/F/A/ |
[V:4]CC CC |
[V:1]g/=e/f/d/ e/c/d/B/ |
[V:2]B2 z2 |
[V:3]G2 z2 |
[V:4]C2 z2 |
[V:1]A3 B |
[V:2]F3 G |
[V:3]C4- |
[V:4]F,3 =E, |
[V:1]Gd/c/ cc |
[V:2]=E3 E |
[V:3]C2 zG |
[V:4]B,3 B, |
[V:1]c>f cB/A/ |
[V:2]F2 zG/F/ |
[V:3]A2 zC |
[V:4]A,2 z=E,/F,/ |
[V:1]Gd/c/ cc |
[V:2]=E3 E |
[V:3]C2 zG |
[V:4]B,3 B, |
[V:1]c>f c=B |
[V:2]F2 zF |
[V:3]A2 zF |
[V:4]A,2 z^G, |
[V:1]c/d/=e/f/ cA |
[V:2]F2 zD |
[V:3]F2 zC |
[V:4]A,2 z^F, |
[V:1]BG AG |
[V:2]DG CD |
[V:3]B,C F,B, |
[V:4]G,=E, F,B,, |
[V:1]FF =EE |
[V:2]A,A, B,B, |
[V:3]CC G,G, |
[V:4]C,C, C,C, |
[V:1]F/C/A,/C/ F/A/G/=E/ |
[V:2]A,z2 C/=E/ |
[V:3]A,2 zB, |
[V:4]F,,2 z2 |
[V:1]A/F/B/G/ ca- |
[V:2]FG AA |
[V:3]A,2 z2 |
[V:4]z4 |
[V:1]af2 ^c- |
[V:2]AF2 ^C- |
[V:3]F,2 A,2 |
[V:4]F,,2 A,,2 |
[V:1]cd2 B/G/ |
[V:2]CD2 D/B,/ |
[V:3]B,2 B2 |
[V:4]B,,2 B,2 |
[V:1]F3 A/G/ |
[V:2]A,3 C/B,/ |
[V:3]zC A,=E, |
[V:4]C2 C,2 |
[V:1]F/C/A,/C/ F/A/G/=E/ |
[V:2]A,2 zC/=E/ |
[V:3]F,2 zB, |
[V:4]F,2 z2 |
[V:1]A/F/B/G/ ca- |
[V:2]FG AA- |
[V:3]A,2 z2 |
[V:4]z4 |
[V:1]a=b2 c'- |
[V:2]A=B2 c- |
[V:3]F,2 A,2 |
[V:4]F,,2 A,,2 |
[V:1]c'^c' d'b/g/ |
[V:2]c^c dd/B/ |
[V:3]B,2 B2 |
[V:4]B,,2 B,2 |
[V:1]f3 g/=e/ |
[V:2]A3 B/G/ |
[V:3]cA F=E/G/ |
[V:4]C2 C,2 |
[V:1]fa/=e/ f/^c/d/A/ |
[V:2]A2 zd/A/ |
[V:3]F2 zd/A/ |
[V:4]F,2 zD/A,/ |
[V:1]BG cC |
[V:2]BG cC |
[V:3]BG cC |
[V:4]B,G, CC, |
[V:1]Ff zA- |
[V:2]Ff zA,- |
[V:3]FF, zz |
[V:4]F,F,, zz |
[V:1]AB2 =B- |
[V:2]A,B,2 =B,- |
[V:3]F,2 G,2 |
[V:4]F,,2 G,,2 |
[V:1]Bc zf |
[V:2]B,C z2 |
[V:3]A,2 z2 |
[V:4]A,,2 z2 |
[V:1]=e/g/b/g/ e/c/B/G/ |
[V:2][B,4=E4] |
[V:3]G,4 |
[V:4]C,4 |
[V:1]Fa zB- |
[V:2][F2A,2] zB,- |
[V:3]A,2 z2 |
[V:4]F,2 z2 |
[V:1]Bc2 ^c- |
[V:2]B,C2 ^C- |
[V:3]G,2 A,2 |
[V:4]G,,2 A,,2 |
[V:1]cd zg |
[V:2]CD z2 |
[V:3]B,2 z2 |
[V:4]B,,2 z2 |
[V:1]^f/a/c'/a/ f/e/c/A/ |
[V:2][^F4C4] |
[V:3]A,4 |
[V:4]D,D, D,D, |
[V:1]B/d/^f/g/ b/g/d/B/ |
[V:2][G4B,4] |
[V:3]B,4 |
[V:4]D,D, D,D, |
[V:1]A/c/e/c/ B/A/G/^F/ |
[V:2]c4 |
[V:3]^F,3 A, |
[V:4]D,D, D,D, |
[V:1]G/B/d/c/ B/A/G/^F/ |
[V:2]B4 |
[V:3]G,4 |
[V:4]D,D, D,D, |
[V:1]G/A/B/G/ F/E/D/^C/ |
[V:2]G4 |
[V:3]^C4 |
[V:4]E,E, E,E, |
[V:1]DA AB |
[V:2]^FF FG |
[V:3]D2 z2 |
[V:4]D,2 z2 |
[V:1]cz3 |
[V:2]Az3 |
[V:3]zA, A,B, |
[V:4]z^F, F,G, |
[V:1]zc cd |
[V:2]zA AB |
[V:3]Cz3 |
[V:4]A,z3 |
[V:1]ez3 |
[V:2]cz3 |
[V:3]zC CD |
[V:4]zA, A,B, |
[V:1]z3 e |
[V:2]z3 G |
[V:3]Ez2 B, |
[V:4]Cz2 C, |
[V:1]ee ee |
[V:2]^FG FG |
[V:3]A,B, A,B, |
[V:4]C,C, C,C, |
[V:1]e2 ze |
[V:2]^F2 zG |
[V:3]A,2 zB, |
[V:4]C,2 zC, |
[V:1]ee ee |
[V:2]^FG FG |
[V:3]A,B, A,B, |
[V:4]C,C, C,C, |
[V:1]e2 ze |
[V:2]^F2 zG |
[V:3]A,2 zB, |
[V:4]C,2 zC, |
[V:1]e2 ze |
[V:2]^F2 zG |
[V:3]A,2 zB, |
[V:4]C,2 zC, |
[V:1]ez ez |
[V:2]^Fz A,z |
[V:3]A,z _Gz |
[V:4]C,z C,z |
[V:1]ez ez |
[V:2]A,z A,z |
[V:3]_Gz Gz |
[V:4]C,z C,z |
[V:1]e4 |
[V:2]_A,4 |
[V:3]F4- |
[V:4]_D,4- |
[V:1]_d4- |
[V:2]B,4- |
[V:3]F4 |
[V:4]D,4 |
[V:1]d4 |
[V:2]B,4 |
[V:3]G4 |
[V:4]E,4- |
[V:1]c4 |
[V:2]_A,2 C2 |
[V:3]_A4- |
[V:4]E,4- |
[V:1]B4- |
[V:2]E4 |
[V:3]A4 |
[V:4]E,4 |
[V:1]B4 |
[V:2]C4- |
[V:3]G4- |
[V:4]=E,4 |
[V:1]_A4- |
[V:2]C4 |
[V:3]G4 |
[V:4]F,4 |
[V:1]A4- |
[V:2]=B,4- |
[V:3]F4- |
[V:4]D,4 |
[V:1]A2 G=B |
[V:2]B,2 C_A |
[V:3]F2 =EF |
[V:4]C,4- |
[V:1]c=B cB |
[V:2]G_A GA |
[V:3]=EF EF |
[V:4]C,4 |
[V:1]c2 z_A |
[V:2]G2 z=B, |
[V:3]=E2 zF, |
[V:4]C,,4- |
[V:1]G_A GA |
[V:2]C=B, CB, |
[V:3]=E,F, E,F, |
[V:4]C,,4- |
[V:1]G2 zB/=E/ |
[V:2]C2 zB, |
[V:3]=E,2 zG, |
[V:4]C,,2 zF, |
[V:1]Fc/=E/ Fd/E/ |
[V:2]CB, CB, |
[V:3]A,G, A,G, |
[V:4]F,F, F,F, |
[V:1]F=e/c/ fc- |
[V:2]C2 zA- |
[V:3]A,2 z2 |
[V:4]F,2 z2 |
[V:1]c=B _BA |
[V:2]A^G =GF |
[V:3]=E,3 F, |
[V:4]=E,3 F, |
[V:1]G/F/G/A/ Gd- |
[V:2]=Ez2 B- |
[V:3]C2 z2 |
[V:4]C,2 z2 |
[V:1]dc2 B |
[V:2]BA2 G |
[V:3]CD E=E |
[V:4]z4 |
[V:1]A/G/A/B/ Ae- |
[V:2]F2 zc- |
[V:3]F2 z2 |
[V:4]z4 |
[V:1]ed2 c |
[V:2]cB2 A |
[V:3]D=E F^F |
[V:4]z4 |
[V:1]B/A/B/c/ Bg- |
[V:2]G2 z2 |
[V:3]G2 z2 |
[V:4]z4 |
[V:1]ge2 ^c |
[V:2]^C3 B/G/ |
[V:3]B,2 G,2 |
[V:4]E,,2 E,2 |
[V:1]d/^c/d/c/ dz |
[V:2]^F2 zD |
[V:3]A,2 z^F, |
[V:4]D,z2 D,- |
[V:1]z4 |
[V:2]E=E F^F |
[V:3]G,2 A,2 |
[V:4]D,^C, z=C, |
[V:1]z4 |
[V:2]G2 zG |
[V:3]B,2 zB, |
[V:4]B,,/A,,/B,,/C,/ B,,G,- |
[V:1]z4 |
[V:2]_A=A B=B |
[V:3]C2 D2 |
[V:4]G,^F,2 =F, |
[V:1]z3 f |
[V:2]c2 zA |
[V:3]=E2 zF- |
[V:4]=E,/D,/E,/F,/ E,z |
[V:1]a/g/f/g/ b/a/g/a/ |
[V:2]c/B/A/B/ d/c/B/c/ |
[V:3]F=E2 _E |
[V:4]z4 |
[V:1]b/a/b/c'/ b_a |
[V:2]d2 zf/d/ |
[V:3]D2 zB, |
[V:4]z3 D, |
[V:1]g/^f/g/_a/ g=f |
[V:2]B2 zd/=B/ |
[V:3]B,2 zG, |
[V:4]E,2 z=B,, |
[V:1]e/d/e/f/ ec |
[V:2]G2 zF |
[V:3]G,2 zE |
[V:4]C,2 zA,, |
[V:1]d/c/d/e/ dB |
[V:2]F2 z=E |
[V:3]D2 z=E |
[V:4]B,,2 zG,, |
[V:1]A/G/F/=E/ F/G/A/B/ |
[V:2]F2 z2 |
[V:3]F2 z2 |
[V:4]F,,2 z2 |
[V:1]c/B/A/G/ A/B/c/d/ |
[V:2]A2 z2 |
[V:3]C2 z2 |
[V:4]F,,2 z2 |
[V:1]ee/A/ ee/A/ |
[V:2]c2 z2 |
[V:3]A,2 z2 |
[V:4]F,,2 z2 |
[V:1]ee/A/ ee/A/ |
[V:2]z3 E |
[V:3]z3 C |
[V:4]z3 B,, |
[V:1]Bf/A/ Bg/A/ |
[V:2]FE FE |
[V:3]DC DC |
[V:4]B,,B,, B,,B,, |
[V:1]Ba/f/ bf- |
[V:2]Fz2 d- |
[V:3]Dz3 |
[V:4]B,,z3 |
[V:1]f=e _ed |
[V:2]d^c =cB |
[V:3]A,3 B, |
[V:4]A,,3 B,, |
[V:1]c/B/c/d/ ce/A/ |
[V:2]Az2 E |
[V:3]F2 zC |
[V:4]F,2 zB,, |
[V:1]Bf/A/ Bg/A/ |
[V:2]FE FE |
[V:3]DC DC |
[V:4]B,,B,, B,,B,, |
[V:1]Ba/f/ bd'- |
[V:2]Fz2 d- |
[V:3]Dz3 |
[V:4]B,,z3 |
[V:1]d'b2 ^f- |
[V:2]dB2 ^F- |
[V:3]B,4- |
[V:4]D,,2 D,2 |
[V:1]fg2 e/c/ |
[V:2]FG2 E/C/ |
[V:3]B,3 G, |
[V:4]E,2 E,2 |
[V:1]BB c/B/c/d/ |
[V:2]DD E/D/E/F/ |
[V:3]F,2 A,2 |
[V:4]F,2 F,,2 |
[V:1]B2 zC/A,/ |
[V:2]D2 z2 |
[V:3]B,2 E,2 |
[V:4]B,,4- |
[V:1]B,D FF |
[V:2]z2 D2- |
[V:3]D,2 _A,2 |
[V:4]B,,4- |
[V:1]F>G Ee/c/ |
[V:2]DE EE |
[V:3]G,4 |
[V:4]B,,4- |
[V:1]B/A/c/A/ G/F/c/E/ |
[V:2][E4C4] |
[V:3]A,4 |
[V:4]B,,4- |
[V:1]D/F/B/d/ fC/A,/ |
[V:2][B,2D2] z2 |
[V:3]B,2 D,E, |
[V:4]B,,4- |
[V:1]B,D FF |
[V:2]z2 _C2 |
[V:3]D,z [D2_A,2] |
[V:4]B,,4- |
[V:1]F>G Eg/f/ |
[V:2]B,2 z2 |
[V:3][DG,]E [EG,][EG,] |
[V:4]B,,4- |
[V:1]e/d/c/B/ A/G/F/E/ |
[V:2]A4 |
[V:3][C4E4] |
[V:4]B,,4- |
[V:1]D/F/B/d/ f_a/g/ |
[V:2]B2 z2 |
[V:3][D2B,2] z2 |
[V:4]B,,2 z2 |
[V:1]f/e/d/c/ =B/_A/G/F/ |
[V:2][F4_A,4] |
[V:3]D4 |
[V:4]=B,,4 |
[V:1]E/G/c/e/ gg |
[V:2][E2G,2] ed |
[V:3]G,2 CD |
[V:4]C,3 B,, |
[V:1]g/f/c'/b/ a/g/f/e/ |
[V:2]c4 |
[V:3]E3 C |
[V:4]A,,4 |
[V:1]d/f/b/d'/ c'/b/d'/c'/ |
[V:2]d4 |
[V:3]B,D FF |
[V:4]B,,4 |
[V:1]b/a/g/f/ =e/d/c/B/ |
[V:2]=e4 |
[V:3]B2 c2 |
[V:4]G,,4 |
[V:1]Ac cd |
[V:2]fA AB |
[V:3]F2 z2 |
[V:4]F,,2 z2 |
[V:1]ez3 |
[V:2]cz3 |
[V:3]zC CD |
[V:4]zA, A,B, |
[V:1]zA AB |
[V:2]zC CD |
[V:3]Ez3 |
[V:4]Cz3 |
[V:1]cc cd |
[V:2]EA AB |
[V:3]zF FF |
[V:4]zE ED |
[V:1]e2 ze |
[V:2]A2 z_G |
[V:3]F2 z_D |
[V:4]C2 zB, |
[V:1]ee ee |
[V:2]F_G FG |
[V:3]C_D CD |
[V:4]A,B, A,B, |
[V:1]e2 ze |
[V:2]F2 z_G |
[V:3]C2 z_D |
[V:4]A,2 zB, |
[V:1]ee ee |
[V:2]F_G FG |
[V:3]C_D CD |
[V:4]A,B, A,B, |
[V:1]e2 ze |
[V:2]F2 z_G |
[V:3]C2 z_D |
[V:4]A,2 zB, |
[V:1]e2 ze |
[V:2]F2 z_G |
[V:3]C2 z_D |
[V:4]A,2 zB, |
[V:1]ez ez |
[V:2]Fz Fz |
[V:3]Cz Cz |
[V:4]A,z A,z |
[V:1]ez ez |
[V:2]Fz Fz |
[V:3]Cz Cz |
[V:4]A,z A,z |
[V:1]e4 |
[V:2]F4- |
[V:3]_C4- |
[V:4]_A,4- |
[V:1]d4- |
[V:2]F4 |
[V:3]C4 |
[V:4]A,4 |
[V:1]d4 |
[V:2]=E4- |
[V:3]B,4- |
[V:4]G,4- |
[V:1]_d4- |
[V:2]E4 |
[V:3]B,4 |
[V:4]G,4 |
[V:1]d4 |
[V:2]E4- |
[V:3]A,4- |
[V:4]F,4- |
[V:1]c4- |
[V:2]E4 |
[V:3]A,4 |
[V:4]F,4- |
[V:1]c4 |
[V:2]D4 |
[V:3]B,4 |
[V:4]F,4 |
[V:1]B4 |
[V:2]_D4 |
[V:3]G4 |
[V:4]=E,4 |
[V:1]Ae/c/ e/c/d/B/ |
[V:2]CC C/E/D/F/ |
[V:3]FA, A,/C/B,/D/ |
[V:4]F,F, F,F, |
[V:1]c/A/B/G/ A/F/G/=E/ |
[V:2]E2 z2 |
[V:3]C2 z2 |
[V:4]F,2 z2 |
[V:1]Fe/c/ e/c/d/B/ |
[V:2]CC C/E/D/F/ |
[V:3]A,A, A,/C/B,/D/ |
[V:4]F,F, F,F, |
[V:1]c/A/B/G/ A/F/G/=E/ |
[V:2]E2 z2 |
[V:3]C2 z2 |
[V:4]F,2 z2 |
[V:1]Fg/e/ g/e/f/d/ |
[V:2]Ce ed |
[V:3]A,2 z2 |
[V:4]F,F, F,F, |
[V:1]e/c/d/B/ c/A/B/G/ |
[V:2]cB AG |
[V:3]z4 |
[V:4]F,2 z2 |
[V:1]Fg gg |
[V:2]F2 z2 |
[V:3]A,A,/C/ A,/C/B,/D/ |
[V:4]F,F,/A,/ F,/A,/G,/B,/ |
[V:1]gg gg |
[V:2]z4 |
[V:3]C/E/D/F/ E/D/C/B,/ |
[V:4]A,/C/B,/D/ C/B,/A,/G,/ |
[V:1]g/f/=e/f/ e/f/e/f/ |
[V:2]z4 |
[V:3]A,2 z2 |
[V:4]F,2 z2 |
[V:1]c'z2 c'/a/ |
[V:2]z[EA] [AE]z |
[V:3]zC Cz |
[V:4]zF, F,z |
[V:1]e'z2 e'/c'/ |
[V:2]z[EA] [EA]z |
[V:3]zC Cz |
[V:4]zF, F,z |
[V:1]az2 c'/a/ |
[V:2]z[AE] [AE]z |
[V:3]zC Cz |
[V:4]zF, F,z |
[V:1]e2 z2 |
[V:2]z4 |
[V:3]z4 |
[V:4]z4 |
[V:1]z4 |
[V:2]z4 |
[V:3]z4 |
[V:4]z4 |
[V:1]d3 e |
[V:2]B3 c |
[V:3]F4- |
[V:4]B,3 A, |
[V:1]cg/f/ ff |
[V:2]A3 A |
[V:3]F2 zc |
[V:4]E3 E |
[V:1]f>b fe/d/ |
[V:2]B2 zc/B/ |
[V:3]d2 zF |
[V:4]D2 zA,/B,/ |
[V:1]cg/f/ ff |
[V:2]A3 A |
[V:3]F2 zc |
[V:4]E3 E |
[V:1]f>b f=e |
[V:2]B2 zB |
[V:3]d2 zB |
[V:4]D2 z^C |
[V:1]f/g/a/b/ fd |
[V:2]B2 zG |
[V:3]B2 zF |
[V:4]D2 z=B, |
[V:1]ec dc |
[V:2]Gc FG |
[V:3]EF B,E |
[V:4]CA, B,E, |
[V:1]BB AA |
[V:2]DD EE |
[V:3]FF CC |
[V:4]F,F, F,F, |
[V:1]B/F/D/F/ B/d/c/A/ |
[V:2]Dz2 F/A/ |
[V:3]D2 zE |
[V:4]B,,2 z2 |
[V:1]d/B/e/c/ fd'- |
[V:2]Bc dd- |
[V:3]D2 z2 |
[V:4]z4 |
[V:1]d'b2 ^f- |
[V:2]dB2 ^F- |
[V:3]B,2 D2 |
[V:4]B,,2 D,2 |
[V:1]fg2 e/c/ |
[V:2]FG2 G/E/ |
[V:3]E2 E,2 |
[V:4]E,2 E,,2 |
[V:1]B3 d/c/ |
[V:2]D3 F/E/ |
[V:3]F,F DA, |
[V:4]F,,2 F,2 |
[V:1]B/F/D/F/ B/d/c/A/ |
[V:2]D2 zF/A/ |
[V:3]B,2 zE |
[V:4]B,,2 z2 |
[V:1]d/B/e/c/ fd'- |
[V:2]Bc dB/d/ |
[V:3]D2 z2 |
[V:4]z4 |
[V:1]d'b2 f- |
[V:2]fz2 B,/B/ |
[V:3]zF/D/ Fz |
[V:4]B,,2 D,2 |
[V:1]f^f ge'- |
[V:2]B,z2 G/c/ |
[V:3]zB,/D/ Ez |
[V:4]E,2 z2 |
[V:1]e'c'2 g- |
[V:2]Gz2 C/c/ |
[V:3]zG/G,/ Gz |
[V:4]E,2 =E,2 |
[V:1]g^g af'- |
[V:2]Cz2 A/d/ |
[V:3]zC/=E/ Fz |
[V:4]F,2 z2 |
[V:1]f'd'2 a |
[V:2]Az2 D/d/ |
[V:3]zA/A,/ Az |
[V:4]F,2 ^F,2 |
[V:1]be'2 d' |
[V:2]G/B/G/B/ F/A/F/A/ |
[V:3]z4 |
[V:4]G,2 z2 |
[V:1]zc'2 b |
[V:2]E/G/E/G/ D/F/D/F/ |
[V:3]z4 |
[V:4]z4 |
[V:1]za2 g |
[V:2]C/E/C/E/ B,/D/B,/D/ |
[V:3]z4 |
[V:4]z4 |
[V:1]zf2 =e |
[V:2]A,/C/A,/C/ G,/B,/G,/B,/ |
[V:3]z4 |
[V:4]z4 |
[V:1]e4 |
[V:2]A,4 |
[V:3]C4 |
[V:4]F,4 |
[V:1]d4 |
[V:2]B,4 |
[V:3]B,4 |
[V:4]G,4 |
[V:1]z/G/c/=B/ d/c/e/d/ |
[V:2]C2 z2 |
[V:3]G,2 z2 |
[V:4]E,2 z2 |
[V:1]f/e/g/^f/ a/g/a/b/ |
[V:2]z4 |
[V:3]z4 |
[V:4]z4 |
[V:1]B3 d/c/ |
[V:2]D3 F/E/ |
[V:3]F3 A, |
[V:4]F,2 F,,2 |
[V:1]B2 ze/A/ |
[V:2]D2 zE |
[V:3]B,2 zC |
[V:4]B,,2 zB,, |
[V:1]Bf/A/ Bg/A/ |
[V:2]FE FE |
[V:3]DC DC |
[V:4]B,,B,, B,,B,, |
[V:1]Ba/f/ bf- |
[V:2]Fz2 d- |
[V:3]Dz3 |
[V:4]B,,2 z2 |
[V:1]f=e _ed |
[V:2]d^c =cB |
[V:3]A,3 B, |
[V:4]A,,3 B,, |
[V:1]c/B/c/d/ ce/A/ |
[V:2]Az2 E |
[V:3]F2 zC |
[V:4]F,2 zB,, |
[V:1]Bf/A/ Bg/A/ |
[V:2]FE FE |
[V:3]DC DC |
[V:4]B,,B,, B,,B,, |
[V:1]Ba/f/ bd'- |
[V:2]Fz2 d- |
[V:3]Dz3 |
[V:4]B,,2 z2 |
[V:1]d'b2 ^f- |
[V:2]dB2 ^F- |
[V:3]B,4- |
[V:4]D,,2 D,2 |
[V:1]fg2 e/c/ |
[V:2]FG2 E/C/ |
[V:3]B,3 G, |
[V:4]E,2 E,2 |
[V:1]BB c/B/c/d/ |
[V:2]DD E/D/E/F/ |
[V:3]F,2 A,2 |
[V:4]F,2 F,,2 |
[V:1]Bz2 e/A/ |
[V:2]Dz2 C/E/ |
[V:3]B,z2 A,/C/ |
[V:4]B,,2 zF, |
[V:1]Bz2 f/A/ |
[V:2]Dz2 E |
[V:3]B,z2 A,/C/ |
[V:4]B,2 zF, |
[V:1]Bz3 |
[V:2]Dz3 |
[V:3]B,z3 |
[V:4]B,2 z2 |
[V:1]g3 A |
[V:2][C4E4] |
[V:3]A,4 |
[V:4]F,4 |
[V:1]B2 z2 |
[V:2][D2B,2] z2 |
[V:3]B,2 z2 |
[V:4]B,2 z2 |
[V:1]e'3 c'/a/ |
[V:2]A3 e/c/ |
[V:3]C3 A,/E/ |
[V:4]F,4 |
[V:1]bd'2 c' |
[V:2]Bf2 e |
[V:3]DB,/D/ Fz |
[V:4]B,,2 zF,/A,/ |
[V:1]bf2 e |
[V:2]dd2 F/A/ |
[V:3]zB,/D/ Fc |
[V:4]B,2 z2 |
[V:1]dz3 |
[V:2]BB/d/ fF/A/ |
[V:3]BF2 E |
[V:4]zD2 C |
[V:1]zB/d/ fF/A/ |
[V:2]BF2 E |
[V:3]DD2 C |
[V:4]B,z2 F, |
[V:1]Bz3 |]
[V:2]Dz3 |]
[V:3]B,z3 |]
[V:4]B,,z3 |]

